src/icon/animals/cow.svg

<svg enable-background="new 0 0 24 24" viewBox="0 0 24 24" xmlns="http://www.w3.org/2000/svg"><path d="m12 14.1c-3.3 0-6 1.8-6 4 0 1.6 1.5 3 3.5 3.6.8.2 1.6.3 2.5.3s1.7-.1 2.5-.3c2-.6 3.5-2 3.5-3.6 0-2.2-2.7-4-6-4zm-3 4.9c-.6 0-1-.4-1-1s.4-1 1-1 1 .4 1 1-.5 1-1 1zm6 0c-.6 0-1-.4-1-1s.4-1 1-1 1 .4 1 1-.4 1-1 1z"/><path d="m22 13c0-1.5-.4-3-1.2-4.3 1.1-1 1.5-2.3 1-3.1-.5-.7-1.5-.8-2.7-.5l.9-1.8c.2-.4.1-.8-.2-1l-.2-.2c-.3-.3-.7-.3-1-.1l-3.6 2.4c-1-.3-2-.4-3-.4s-2.1.2-3 .4l-3.5-2.3c-.3-.2-.8-.1-1.1.1l-.1.2c-.3.2-.4.6-.2 1l.9 1.8c-1.2-.4-2.3-.2-2.8.5-.5.8-.1 2 1 3.1-.8 1.2-1.2 2.7-1.2 4.2 0 2 .8 3.9 2 5.4 0-.1 0-.2 0-.3 0-3.3 3.6-6 8-6s8 2.7 8 6v.3c1.2-1.5 2-3.4 2-5.4zm-13-3c-.6 0-1-.4-1-1s.4-1 1-1 1 .4 1 1-.4 1-1 1zm6 0c-.6 0-1-.4-1-1s.4-1 1-1 1 .4 1 1-.4 1-1 1z"/></svg>

<?xml version="1.0" encoding="utf-8"?>
<!-- Generator: Adobe Illustrator 18.0.0, SVG Export Plug-In . SVG Version: 6.00 Build 0)  -->
<!DOCTYPE svg PUBLIC "-//W3C//DTD SVG 1.1//EN" "http://www.w3.org/Graphics/SVG/1.1/DTD/svg11.dtd">
<svg version="1.1" id="Layer_1" xmlns="http://www.w3.org/2000/svg" xmlns:xlink="http://www.w3.org/1999/xlink" x="0px" y="0px"
	 viewBox="0 0 24 24" enable-background="new 0 0 24 24" xml:space="preserve">
<g>
	<path d="M12,14.1c-3.3,0-6,1.8-6,4c0,1.6,1.5,3,3.5,3.6c0.8,0.2,1.6,0.3,2.5,0.3c0.9,0,1.7-0.1,2.5-0.3c2-0.6,3.5-2,3.5-3.6
		C18,15.9,15.3,14.1,12,14.1z M9,19c-0.6,0-1-0.4-1-1s0.4-1,1-1c0.6,0,1,0.4,1,1S9.5,19,9,19z M15,19c-0.6,0-1-0.4-1-1s0.4-1,1-1
		c0.6,0,1,0.4,1,1S15.6,19,15,19z"/>
	<path d="M22,13c0-1.5-0.4-3-1.2-4.3c1.1-1,1.5-2.3,1-3.1c-0.5-0.7-1.5-0.8-2.7-0.5l0.9-1.8c0.2-0.4,0.1-0.8-0.2-1l-0.2-0.2
		c-0.3-0.3-0.7-0.3-1-0.1L15,4.4c-1-0.3-2-0.4-3-0.4C11,4,9.9,4.2,9,4.4L5.5,2.1C5.2,1.9,4.7,2,4.4,2.2L4.3,2.4C4,2.6,3.9,3,4.1,3.4
		l0.9,1.8C3.8,4.8,2.7,5,2.2,5.7c-0.5,0.8-0.1,2,1,3.1C2.4,10,2,11.5,2,13c0,2,0.8,3.9,2,5.4c0-0.1,0-0.2,0-0.3c0-3.3,3.6-6,8-6
		c4.4,0,8,2.7,8,6c0,0.1,0,0.2,0,0.3C21.2,16.9,22,15,22,13z M9,10c-0.6,0-1-0.4-1-1c0-0.6,0.4-1,1-1c0.6,0,1,0.4,1,1
		C10,9.6,9.6,10,9,10z M15,10c-0.6,0-1-0.4-1-1c0-0.6,0.4-1,1-1c0.6,0,1,0.4,1,1C16,9.6,15.6,10,15,10z"/>
</g>
</svg>
